gtk-icons/Papirus-Dark-GTK/22x22/actions/view-calendar-wedding-anniversary.svg

<?xml version="1.0" encoding="UTF-8" standalone="no"?>
<!-- Created with Inkscape (http://www.inkscape.org/) -->

<svg
   xmlns:osb="http://www.openswatchbook.org/uri/2009/osb"
   xmlns:dc="http://purl.org/dc/elements/1.1/"
   xmlns:cc="http://creativecommons.org/ns#"
   xmlns:rdf="http://www.w3.org/1999/02/22-rdf-syntax-ns#"
   xmlns:svg="http://www.w3.org/2000/svg"
   xmlns="http://www.w3.org/2000/svg"
   xmlns:sodipodi="http://sodipodi.sourceforge.net/DTD/sodipodi-0.dtd"
   xmlns:inkscape="http://www.inkscape.org/namespaces/inkscape"
   sodipodi:docname="view-calendar-wedding-anniversary.svg"
   inkscape:export-filename="/home/sam/source-symbolic.png"
   inkscape:export-xdpi="270"
   inkscape:export-ydpi="270"
   height="22"
   id="svg7384"
   style="enable-background:new"
   version="1.1"
   inkscape:version="0.91 r"
   width="22">
  <sodipodi:namedview
     inkscape:bbox-nodes="true"
     inkscape:bbox-paths="true"
     bordercolor="#666666"
     borderlayer="false"
     borderopacity="1"
     inkscape:current-layer="layer10"
     inkscape:cx="-22.143933"
     inkscape:cy="9.8236021"
     gridtolerance="10"
     inkscape:guide-bbox="true"
     guidetolerance="10"
     id="namedview88"
     inkscape:object-nodes="true"
     inkscape:object-paths="true"
     objecttolerance="10"
     pagecolor="#f7f7f7"
     inkscape:pageopacity="1"
     inkscape:pageshadow="2"
     showborder="true"
     showgrid="false"
     showguides="true"
     inkscape:showpageshadow="false"
     inkscape:snap-bbox="true"
     inkscape:snap-bbox-edge-midpoints="false"
     inkscape:snap-bbox-midpoints="false"
     inkscape:snap-center="false"
     inkscape:snap-global="true"
     inkscape:snap-grids="true"
     inkscape:snap-intersection-paths="true"
     inkscape:snap-midpoints="true"
     inkscape:snap-nodes="true"
     inkscape:snap-object-midpoints="true"
     inkscape:snap-others="true"
     inkscape:snap-page="false"
     inkscape:snap-smooth-nodes="true"
     inkscape:snap-to-guides="true"
     inkscape:window-height="849"
     inkscape:window-maximized="1"
     inkscape:window-width="1600"
     inkscape:window-x="0"
     inkscape:window-y="26"
     inkscape:zoom="14.94">
    <inkscape:grid
       color="#ffffff"
       dotted="false"
       empcolor="#0800ff"
       empopacity="0.4627451"
       empspacing="4"
       enabled="true"
       id="grid4866"
       opacity="0.16470588"
       originx="-83.997169px"
       originy="-356px"
       snapvisiblegridlinesonly="true"
       spacingx="0.25px"
       spacingy="0.25px"
       type="xygrid"
       visible="true" />
  </sodipodi:namedview>
  <metadata
     id="metadata90">
    <rdf:RDF>
      <cc:Work
         rdf:about="">
        <dc:format>image/svg+xml</dc:format>
        <dc:type
           rdf:resource="http://purl.org/dc/dcmitype/StillImage" />
        <dc:title>Paper Symbolic Icon Theme</dc:title>
      </cc:Work>
    </rdf:RDF>
  </metadata>
  <title
     id="title8473">Paper Symbolic Icon Theme</title>
  <defs
     id="defs7386">
    <linearGradient
       id="linearGradient5606"
       osb:paint="solid">
      <stop
         id="stop5608"
         offset="0"
         style="stop-color:#ffffff;stop-opacity:1;" />
    </linearGradient>
    <filter
       inkscape:collect="always"
       id="filter7554"
       style="color-interpolation-filters:sRGB">
      <feBlend
         inkscape:collect="always"
         id="feBlend7556"
         in2="BackgroundImage"
         mode="darken" />
    </filter>
  </defs>
  <g
     inkscape:groupmode="layer"
     id="layer9"
     inkscape:label="status"
     style="display:inline"
     transform="translate(-324.99737,139)" />
  <g
     inkscape:groupmode="layer"
     id="layer10"
     inkscape:label="devices"
     style="display:inline;filter:url(#filter7554)"
     transform="translate(-324.99737,139)">
    <g
       id="g4156"
       transform="translate(0.99954693,3)"
       style="opacity:0.72;fill:#ffffff;fill-opacity:1">
      <path
         style="opacity:1;fill:#ffffff;fill-opacity:1;stroke:none;stroke-width:1;stroke-linecap:round;stroke-linejoin:round;stroke-miterlimit:4;stroke-dasharray:none;stroke-opacity:1"
         d="M 6.0019531,2 A 6,6 0 0 0 0.00195313,8 6,6 0 0 0 6.0019531,14 6,6 0 0 0 8,13.648438 6,6 0 0 0 10.001953,14 a 6,6 0 0 0 6,-6 6,6 0 0 0 -6,-6 A 6,6 0 0 0 8.0019531,2.3496094 6,6 0 0 0 6.0019531,2 Z M 5.5078125,4.0351562 A 6,6 0 0 0 4.0019531,8 6,6 0 0 0 5.5058594,11.964844 4,4 0 0 1 2.0019531,8 4,4 0 0 1 5.5078125,4.0351562 Z m 4.9882815,0 A 4,4 0 0 1 14.001953,8 4,4 0 0 1 10.494141,11.964844 6,6 0 0 0 12.001953,8 6,6 0 0 0 10.496094,4.0351562 Z M 8.0039062,4.5410156 A 4,4 0 0 1 10.001953,8 4,4 0 0 1 8,11.458984 4,4 0 0 1 6.0019531,8 4,4 0 0 1 8.0039062,4.5410156 Z"
         transform="translate(326.99587,-139)"
         id="path4148"
         inkscape:connector-curvature="0" />
    </g>
  </g>
  <g
     inkscape:groupmode="layer"
     id="layer1"
     inkscape:label="places"
     style="display:inline"
     transform="translate(-83.997169,-478)" />
  <g
     inkscape:groupmode="layer"
     id="layer14"
     inkscape:label="mimetypes"
     style="display:inline"
     transform="translate(-324.99737,139)" />
  <g
     inkscape:groupmode="layer"
     id="layer15"
     inkscape:label="emblems"
     style="display:inline"
     transform="translate(-324.99737,139)" />
  <g
     inkscape:groupmode="layer"
     id="g71291"
     inkscape:label="emotes"
     style="display:inline"
     transform="translate(-324.99737,139)" />
  <g
     inkscape:groupmode="layer"
     id="layer2"
     inkscape:label="categories"
     style="display:inline"
     transform="translate(-83.997169,-328)" />
  <g
     inkscape:groupmode="layer"
     id="g6058"
     inkscape:label="apps"
     style="display:inline"
     transform="translate(-83.997169,-328)" />
  <g
     inkscape:groupmode="layer"
     id="layer12"
     inkscape:label="actions"
     style="display:inline"
     transform="translate(-324.99737,139)" />
</svg>

<?xml version="1.0" encoding="UTF-8" standalone="no"?>
<!-- Created with Inkscape (http://www.inkscape.org/) -->
<svg id="svg7384" xmlns:rdf="http://www.w3.org/1999/02/22-rdf-syntax-ns#" style="enable-background:new" xmlns="http://www.w3.org/2000/svg" xmlns:osb="http://www.openswatchbook.org/uri/2009/osb" height="22" width="22" version="1.1" xmlns:cc="http://creativecommons.org/ns#" xmlns:dc="http://purl.org/dc/elements/1.1/">
 <metadata id="metadata90">
  <rdf:RDF>
   <cc:Work rdf:about="">
    <dc:format>image/svg+xml</dc:format>
    <dc:type rdf:resource="http://purl.org/dc/dcmitype/StillImage"/>
    <dc:title>Paper Symbolic Icon Theme</dc:title>
   </cc:Work>
  </rdf:RDF>
 </metadata>
 <title id="title8473">Paper Symbolic Icon Theme</title>
 <defs id="defs7386">
  <filter id="filter7554" style="color-interpolation-filters:sRGB">
   <feBlend id="feBlend7556" in2="BackgroundImage" mode="darken"/>
  </filter>
 </defs>
 <g id="layer10" transform="translate(-325 139)" filter="url(#filter7554)">
  <g id="g4156" opacity=".72" transform="translate(.99955 3)" fill="#fff">
   <path id="path4148" opacity="1" d="m6.002 2a6 6 0 0 0 -6 6 6 6 0 0 0 6 6 6 6 0 0 0 1.998 -0.352 6 6 0 0 0 2.002 0.352 6 6 0 0 0 6 -6 6 6 0 0 0 -6 -6 6 6 0 0 0 -2 0.3496 6 6 0 0 0 -2 -0.3496zm-0.4942 2.0352a6 6 0 0 0 -1.5058 3.9648 6 6 0 0 0 1.5039 3.965 4 4 0 0 1 -3.5039 -3.965 4 4 0 0 1 3.5058 -3.9648zm4.9883 0a4 4 0 0 1 3.506 3.9648 4 4 0 0 1 -3.508 3.965 6 6 0 0 0 1.508 -3.965 6 6 0 0 0 -1.506 -3.9648zm-2.4921 0.5058a4 4 0 0 1 1.9981 3.459 4 4 0 0 1 -2.002 3.459 4 4 0 0 1 -1.998 -3.459 4 4 0 0 1 2.0019 -3.459z" transform="translate(327 -139)" fill="#fff"/>
  </g>
 </g>
</svg>
